src/categories-icons-sprite/categories/svg-cat-cosmetics-professional-tools.svg

<svg width="33" height="33" viewBox="0 0 33 33" fill="none" xmlns="http://www.w3.org/2000/svg">
<path class="p-DABBA6" d="M14.0187 33C11.3015 33 9.02988 30.9663 8.7334 28.268L10.6556 28.0565C10.8435 29.773 12.29 31.0664 14.0187 31.0664C15.8843 31.0664 17.4025 29.5482 17.4025 27.6826V26.2324C17.4025 23.5662 19.5711 21.3984 22.2365 21.3984C24.9018 21.3984 27.0704 23.5662 27.0704 26.2324C27.0704 27.8318 28.3715 29.1328 29.9708 29.1328H33.0001V31.0664H29.9708C27.3055 31.0664 25.1369 28.8987 25.1369 26.2324C25.1369 24.6331 23.8358 23.332 22.2365 23.332C20.6371 23.332 19.3361 24.6331 19.3361 26.2324V27.6826C19.3361 30.6151 16.9502 33 14.0187 33Z" fill="#5FBEFF"/>
<path class="p-DABBA6" d="M12.1367 15.5707L13.0016 21.232L16.0548 18.7297V15.1621L12.1367 15.5707Z" fill="#5FBEFF"/>
<path class="p-F4D7AF" d="M5.80078 16.4354V25.2655C5.80078 27.3974 7.53515 29.1327 9.66797 29.1327C11.8008 29.1327 13.5352 27.3974 13.5352 25.2655V16.2258L5.80078 16.4354Z" fill="#76B7E2"/>
<path class="p-FF7A53" d="M25.9488 7.25098L25.5428 8.70117L24.1699 13.5352C20.8249 14.85 16.5516 17.4023 9.45527 17.4023H8.70117C3.90592 17.4023 0 13.4964 0 8.70117C0 3.90579 3.90592 0 8.70117 0H9.45527C16.3389 0 20.3607 2.35892 24.1699 3.86719L25.9488 7.25098Z" fill="#58ADE5"/>
<path class="p-FF3B62" d="M25.5428 8.70117L24.1699 13.5352C20.8249 14.85 16.5516 17.4023 9.45527 17.4023H8.70117C3.90592 17.4023 0 13.4964 0 8.70117H25.5428Z" fill="#4D98CB"/>
<path class="p-FFB6FA" d="M33 2.0835L24.1699 3.86728V13.5352L33 15.319V2.0835Z" fill="#AFD9F6"/>
<path class="p-F4D7AF" d="M11.6016 11.6016H5.80078V13.5352H11.6016V11.6016Z" fill="#58ADE5"/>
<path class="p-FAECD8" d="M11.6016 7.73438H5.80078V9.66797H11.6016V7.73438Z" fill="#5FBEFF"/>
<path class="p-FAECD8" d="M11.6016 3.86719H5.80078V5.80078H11.6016V3.86719Z" fill="#5FBEFF"/>
<path class="p-F4D7AF" d="M11.6016 8.70117H5.80078V9.66797H11.6016V8.70117Z" fill="#58ADE5"/>
<path class="p-FF7CB9" d="M33 8.70117H24.1699V13.5352L33 15.3189V8.70117Z" fill="#65B3E7"/>
</svg>

<svg width="33" height="33" fill="none" xmlns="http://www.w3.org/2000/svg"><path class="p-DABBA6" d="M14.019 33a5.307 5.307 0 01-5.286-4.732l1.923-.212a3.376 3.376 0 003.363 3.01 3.388 3.388 0 003.383-3.383v-1.45a4.84 4.84 0 014.834-4.835 4.839 4.839 0 014.834 4.834c0 1.6 1.302 2.9 2.9 2.9H33v1.934h-3.03a4.839 4.839 0 01-4.833-4.834c0-1.599-1.301-2.9-2.9-2.9-1.6 0-2.9 1.301-2.9 2.9v1.45A5.323 5.323 0 0114.018 33zM12.137 15.57l.865 5.662 3.053-2.502v-3.568l-3.918.409z" fill="#5FBEFF"/><path class="p-F4D7AF" d="M5.8 16.435v8.83a3.872 3.872 0 003.868 3.868 3.872 3.872 0 003.867-3.867v-9.04l-7.734.21z" fill="#76B7E2"/><path class="p-FF7A53" d="M25.949 7.251l-.406 1.45-1.373 4.834c-3.345 1.315-7.618 3.867-14.715 3.867h-.754C3.906 17.402 0 13.496 0 8.702 0 3.905 3.906 0 8.701 0h.754C16.34 0 20.361 2.359 24.17 3.867l1.779 3.384z" fill="#58ADE5"/><path class="p-FF3B62" d="M25.543 8.701l-1.373 4.834c-3.345 1.315-7.618 3.867-14.715 3.867h-.754C3.906 17.402 0 13.496 0 8.702h25.543z" fill="#4D98CB"/><path class="p-FFB6FA" d="M33 2.083l-8.83 1.784v9.668L33 15.32V2.083z" fill="#AFD9F6"/><path class="p-F4D7AF" d="M11.602 11.602H5.8v1.933h5.8v-1.933z" fill="#58ADE5"/><path class="p-FAECD8" d="M11.602 7.734H5.8v1.934h5.8V7.734zM11.602 3.867H5.8v1.934h5.8V3.867z" fill="#5FBEFF"/><path class="p-F4D7AF" d="M11.602 8.701H5.8v.967h5.8v-.967z" fill="#58ADE5"/><path class="p-FF7CB9" d="M33 8.701h-8.83v4.834L33 15.32V8.7z" fill="#65B3E7"/></svg>
